public/img/colabs_logo_black.svg

<svg clip-rule="evenodd" fill-rule="evenodd" stroke-linejoin="round" stroke-miterlimit="2" viewBox="0 0 97 95" xmlns="http://www.w3.org/2000/svg"><g transform="matrix(.493771 0 0 .626595 -568.049 -5.64304)"><path d="m1150.43 9.006h195.943v150.736h-195.943z" fill="none"/><path d="m352.664 502.415c30.222 0 54.76 24.537 54.76 54.76s-24.538 54.76-54.76 54.76c-30.223 0-54.76-24.537-54.76-54.76s24.537-54.76 54.76-54.76zm-16.225 54.76c.118-15.427-9.899-19.817-12.323-21.22-1.158-.671-1.604-.246-.991.944 0 0 6.162 10.184 6.162 20.276 0 10.091-6.162 20.275-6.162 20.276-.613 1.189-.167 1.614.991.943 2.424-1.402 12.441-5.793 12.323-21.219zm16.833-23.681c-10.092 0-20.276-5.249-20.276-5.249-1.19-.613-1.614-.167-.944.991 0 0 7.196 12.43 21.22 12.322 14.024.108 21.22-12.322 21.22-12.322.671-1.158.246-1.604-.944-.991 0 0-10.184 5.249-20.276 5.249zm23.681 23.681c0-10.092 5.249-20.276 5.249-20.276.613-1.19.167-1.615-.991-.944 0 0-12.43 7.196-12.323 21.22-.107 14.023 12.323 21.22 12.323 21.22 1.158.67 1.604.246.991-.944 0 0-5.249-10.184-5.249-20.276zm-23.681 23.68c10.092 0 20.276 5.25 20.276 5.25 1.19.613 1.615.167.944-.991 0 0-7.196-12.43-21.22-12.323-14.024-.107-21.22 12.323-21.22 12.323-.67 1.158-.246 1.604.944.991 0 0 10.184-5.25 20.276-5.25z" transform="matrix(1.66427 0 0 1.31148 661.887 -646.459)"/></g></svg>

<?xml version="1.0" encoding="UTF-8" standalone="no"?>
<!DOCTYPE svg PUBLIC "-//W3C//DTD SVG 1.1//EN" "http://www.w3.org/Graphics/SVG/1.1/DTD/svg11.dtd">
<svg width="100%" height="100%" viewBox="0 0 97 95" version="1.1" xmlns="http://www.w3.org/2000/svg" xmlns:xlink="http://www.w3.org/1999/xlink" xml:space="preserve" xmlns:serif="http://www.serif.com/" style="fill-rule:evenodd;clip-rule:evenodd;stroke-linejoin:round;stroke-miterlimit:2;">
    <g id="Artboard1" transform="matrix(0.493771,0,0,0.626595,-568.049,-5.64304)">
        <rect x="1150.43" y="9.006" width="195.943" height="150.736" style="fill:none;"/>
        <g transform="matrix(1.66427,0,0,1.31148,661.887,-646.459)">
            <path d="M352.664,502.415C382.886,502.415 407.424,526.952 407.424,557.175C407.424,587.398 382.886,611.935 352.664,611.935C322.441,611.935 297.904,587.398 297.904,557.175C297.904,526.952 322.441,502.415 352.664,502.415ZM336.439,557.175C336.557,541.748 326.54,537.358 324.116,535.955C322.958,535.284 322.512,535.709 323.125,536.899C323.125,536.899 329.287,547.083 329.287,557.175C329.287,567.266 323.125,577.45 323.125,577.451C322.512,578.64 322.958,579.065 324.116,578.394C326.54,576.992 336.557,572.601 336.439,557.175ZM353.272,533.494C343.18,533.494 332.996,528.245 332.996,528.245C331.806,527.632 331.382,528.078 332.052,529.236C332.052,529.236 339.248,541.666 353.272,541.558C367.296,541.666 374.492,529.236 374.492,529.236C375.163,528.078 374.738,527.632 373.548,528.245C373.548,528.245 363.364,533.494 353.272,533.494ZM376.953,557.175C376.953,547.083 382.202,536.899 382.202,536.899C382.815,535.709 382.369,535.284 381.211,535.955C381.211,535.955 368.781,543.151 368.888,557.175C368.781,571.198 381.211,578.395 381.211,578.395C382.369,579.065 382.815,578.641 382.202,577.451C382.202,577.451 376.953,567.267 376.953,557.175ZM353.272,580.855C363.364,580.855 373.548,586.105 373.548,586.105C374.738,586.718 375.163,586.272 374.492,585.114C374.492,585.114 367.296,572.684 353.272,572.791C339.248,572.684 332.052,585.114 332.052,585.114C331.382,586.272 331.806,586.718 332.996,586.105C332.996,586.105 343.18,580.855 353.272,580.855Z"/>
        </g>
    </g>
</svg>
